public/images/social-twitter.svg

<svg fill="none" height="26" viewBox="0 0 27 26" width="27" xmlns="http://www.w3.org/2000/svg"><path d="m13.1739 0c-7.27988 0-13.1739 5.82426-13.1739 13 0 7.1757 5.89402 13 13.1739 13 7.2799 0 13.1739-5.8162 13.1739-13 0-7.18379-5.9021-13-13.1739-13zm6.6359 10.3775c0 .1367.0081.2815.0081.4263 0 4.328-3.3424 9.3237-9.4483 9.3237-1.87503 0-3.6196-.539-5.08699-1.4722.26087.0322.52174.0483.79076.0483 1.55706 0 2.9837-.5229 4.12503-1.3998-1.45112-.0241-2.67394-.9734-3.09786-2.2766.20381.0403.40761.0563.62772.0563.30163 0 .59511-.0402.87228-.1126-1.5163-.2976-2.66576-1.625-2.66576-3.2098 0-.0161 0-.0241 0-.0402.44837.2494.96196.3942 1.5.4103-.88858-.5873-1.47554-1.5928-1.47554-2.72712 0-.60334.16304-1.16646.44837-1.64913 1.63859 1.97896 4.08419 3.28215 6.83969 3.41895-.0571-.2413-.0897-.4907-.0897-.7482 0-1.80998 1.4837-3.27409 3.3179-3.27409.9538 0 1.818.39418 2.4212 1.03775.7582-.14481 1.4674-.41832 2.1115-.79641-.2528.76423-.7745 1.40779-1.4593 1.81002.6685-.08045 1.3125-.25742 1.9076-.51485-.4402.65965-1.0108 1.23886-1.6549 1.69738z" fill="#51b8bc"/></svg>

<svg width="27" height="26" viewBox="0 0 27 26" fill="none" xmlns="http://www.w3.org/2000/svg">
<path d="M13.1739 0C5.89402 0 0 5.82426 0 13C0 20.1757 5.89402 26 13.1739 26C20.4538 26 26.3478 20.1838 26.3478 13C26.3478 5.81621 20.4457 0 13.1739 0ZM19.8098 10.3775C19.8098 10.5142 19.8179 10.659 19.8179 10.8038C19.8179 15.1318 16.4755 20.1275 10.3696 20.1275C8.49457 20.1275 6.75 19.5885 5.28261 18.6553C5.54348 18.6875 5.80435 18.7036 6.07337 18.7036C7.63043 18.7036 9.05707 18.1807 10.1984 17.3038C8.74728 17.2797 7.52446 16.3304 7.10054 15.0272C7.30435 15.0675 7.50815 15.0835 7.72826 15.0835C8.02989 15.0835 8.32337 15.0433 8.60054 14.9709C7.08424 14.6733 5.93478 13.3459 5.93478 11.7611C5.93478 11.745 5.93478 11.737 5.93478 11.7209C6.38315 11.9703 6.89674 12.1151 7.43478 12.1312C6.5462 11.5439 5.95924 10.5384 5.95924 9.40408C5.95924 8.80074 6.12228 8.23762 6.40761 7.75495C8.0462 9.73391 10.4918 11.0371 13.2473 11.1739C13.1902 10.9326 13.1576 10.6832 13.1576 10.4257C13.1576 8.61572 14.6413 7.15161 16.4755 7.15161C17.4293 7.15161 18.2935 7.54579 18.8967 8.18936C19.6549 8.04455 20.3641 7.77104 21.0082 7.39295C20.7554 8.15718 20.2337 8.80074 19.5489 9.20297C20.2174 9.12252 20.8614 8.94555 21.4565 8.68812C21.0163 9.34777 20.4457 9.92698 19.8016 10.3855L19.8098 10.3775Z" fill="#51B8BC"/>
</svg>
